actions/24/list-add.svg

<svg xmlns="http://www.w3.org/2000/svg" xmlns:xlink="http://www.w3.org/1999/xlink" viewBox="0 0 24 24"><defs><linearGradient id="a"><stop offset="0" stop-color="#737373"/><stop offset=".262" stop-color="#636363"/><stop offset=".705" stop-color="#4b4b4b"/><stop offset="1" stop-color="#3f3f3f"/></linearGradient><radialGradient xlink:href="#a" id="d" gradientUnits="userSpaceOnUse" gradientTransform="matrix(0 3.75 -3.875 0 21.625 -41)" cx="12" cy="3" fx="12" fy="3" r="8"/><clipPath id="f"><path d="M10 2c-.554 0-1 .446-1 1v6H3c-.554 0-1 .446-1 1v4c0 .554.446 1 1 1h6v6c0 .554.446 1 1 1h4c.554 0 1-.446 1-1v-6h6c.554 0 1-.446 1-1v-4c0-.554-.446-1-1-1h-6V3c0-.554-.446-1-1-1h-4z" fill="url(#b)" fill-rule="evenodd"/></clipPath><radialGradient xlink:href="#a" id="b" gradientUnits="userSpaceOnUse" gradientTransform="matrix(0 3.75 -3.875 0 21.625 -41)" cx="12" cy="3" fx="12" fy="3" r="8"/><clipPath id="e"><path d="M10 2c-.554 0-1 .446-1 1v6H3c-.554 0-1 .446-1 1v4c0 .554.446 1 1 1h6v6c0 .554.446 1 1 1h4c.554 0 1-.446 1-1v-6h6c.554 0 1-.446 1-1v-4c0-.554-.446-1-1-1h-6V3c0-.554-.446-1-1-1h-4z" fill="url(#c)" fill-rule="evenodd"/></clipPath><radialGradient xlink:href="#a" id="c" gradientUnits="userSpaceOnUse" gradientTransform="matrix(0 3.75 -3.875 0 21.625 -41)" cx="12" cy="3" fx="12" fy="3" r="8"/></defs><path d="M10 3c-.554 0-1 .446-1 1v6H3c-.554 0-1 .446-1 1v4c0 .554.446 1 1 1h6v6c0 .554.446 1 1 1h4c.554 0 1-.446 1-1v-6h6c.554 0 1-.446 1-1v-4c0-.554-.446-1-1-1h-6V4c0-.554-.446-1-1-1h-4z" fill="#fff" fill-rule="evenodd" opacity=".35"/><path d="M10 2c-.554 0-1 .446-1 1v6H3c-.554 0-1 .446-1 1v4c0 .554.446 1 1 1h6v6c0 .554.446 1 1 1h4c.554 0 1-.446 1-1v-6h6c.554 0 1-.446 1-1v-4c0-.554-.446-1-1-1h-6V3c0-.554-.446-1-1-1h-4z" fill="url(#d)" fill-rule="evenodd"/><path clip-path="url(#e)" d="M10 2c-.554 0-1 .446-1 1v6H3c-.554 0-1 .446-1 1v4c0 .554.446 1 1 1h6v6c0 .554.446 1 1 1h4c.554 0 1-.446 1-1v-6h6c.554 0 1-.446 1-1v-4c0-.554-.446-1-1-1h-6V3c0-.554-.446-1-1-1h-4z" opacity=".05" fill="none" stroke="#000" stroke-width="4"/><path clip-path="url(#f)" d="M10 2c-.554 0-1 .446-1 1v6H3c-.554 0-1 .446-1 1v4c0 .554.446 1 1 1h6v6c0 .554.446 1 1 1h4c.554 0 1-.446 1-1v-6h6c.554 0 1-.446 1-1v-4c0-.554-.446-1-1-1h-6V3c0-.554-.446-1-1-1h-4z" opacity=".1" fill="none" stroke="#000" stroke-width="2"/></svg>

<?xml version="1.0" encoding="UTF-8" standalone="no"?>
<svg
   xmlns:dc="http://purl.org/dc/elements/1.1/"
   xmlns:cc="http://creativecommons.org/ns#"
   xmlns:rdf="http://www.w3.org/1999/02/22-rdf-syntax-ns#"
   xmlns:svg="http://www.w3.org/2000/svg"
   xmlns="http://www.w3.org/2000/svg"
   xmlns:xlink="http://www.w3.org/1999/xlink"
   version="1.1"
   width="24"
   height="24"
   id="svg4524">
  <defs
     id="defs4526">
    <linearGradient
       id="linearGradient2867-449-88-871-390-598-476-591-434-148-57-177-641-289-620-227-114-444-680-744-4-1">
      <stop
         id="stop5430-5-0"
         style="stop-color:#737373;stop-opacity:1"
         offset="0" />
      <stop
         id="stop5432-2-0"
         style="stop-color:#636363;stop-opacity:1"
         offset="0.26238" />
      <stop
         id="stop5434-9-6"
         style="stop-color:#4b4b4b;stop-opacity:1"
         offset="0.704952" />
      <stop
         id="stop5436-2-7"
         style="stop-color:#3f3f3f;stop-opacity:1"
         offset="1" />
    </linearGradient>
    <radialGradient
       cx="16.202444"
       cy="-19.005346"
       r="19.99999"
       fx="16.202444"
       fy="-19.005346"
       id="radialGradient3769"
       xlink:href="#linearGradient2867-449-88-871-390-598-476-591-434-148-57-177-641-289-620-227-114-444-680-744-4-1"
       gradientUnits="userSpaceOnUse"
       gradientTransform="matrix(0,1.5000006,-1.5241254,0,-16.959842,-23.077676)" />
    <radialGradient
       cx="16.202444"
       cy="-19.005346"
       r="19.99999"
       fx="16.202444"
       fy="-19.005346"
       id="radialGradient3896"
       xlink:href="#linearGradient2867-449-88-871-390-598-476-591-434-148-57-177-641-289-620-227-114-444-680-744-4-1"
       gradientUnits="userSpaceOnUse"
       gradientTransform="matrix(0,1.5000006,-1.5241254,0,-17.131885,-23.077676)" />
    <radialGradient
       cx="22.652411"
       cy="-40.142262"
       r="19.99999"
       fx="22.652411"
       fy="-40.142262"
       id="radialGradient3896-0"
       xlink:href="#linearGradient2867-449-88-871-390-598-476-591-434-148-57-177-641-289-620-227-114-444-680-744-4-1-5"
       gradientUnits="userSpaceOnUse"
       gradientTransform="matrix(-1.4583908,0,0,-1.5241254,45.582541,-59.323023)" />
    <linearGradient
       id="linearGradient2867-449-88-871-390-598-476-591-434-148-57-177-641-289-620-227-114-444-680-744-4-1-5">
      <stop
         id="stop5430-5-0-9"
         style="stop-color:#737373;stop-opacity:1"
         offset="0" />
      <stop
         id="stop5432-2-0-0"
         style="stop-color:#636363;stop-opacity:1"
         offset="0.26238" />
      <stop
         id="stop5434-9-6-8"
         style="stop-color:#4b4b4b;stop-opacity:1"
         offset="0.704952" />
      <stop
         id="stop5436-2-7-0"
         style="stop-color:#3f3f3f;stop-opacity:1"
         offset="1" />
    </linearGradient>
    <radialGradient
       xlink:href="#linearGradient2867-449-88-871-390-598-476-591-434-148-57-177-641-289-620-227-114-444-680-744-4-1-5"
       id="radialGradient4328"
       gradientUnits="userSpaceOnUse"
       gradientTransform="matrix(1.5646867e-7,3.7500001,-3.8749999,1.625e-7,21.624999,-41)"
       cx="12"
       cy="3"
       fx="12"
       fy="3"
       r="8" />
    <clipPath
       clipPathUnits="userSpaceOnUse"
       id="clipPath4346">
      <path
         id="path4348"
         d="M 10,2 C 9.446,2 9,2.446 9,3 L 9,9 3,9 C 2.446,9 2,9.446 2,10 l 0,4 c 0,0.554 0.446,1 1,1 l 6,0 0,6 c 0,0.554 0.446,1 1,1 l 4,0 c 0.554,0 1,-0.446 1,-1 l 0,-6 6,0 c 0.554,0 1,-0.446 1,-1 l 0,-4 C 22,9.446 21.554,9 21,9 L 15,9 15,3 C 15,2.446 14.554,2 14,2 l -4,0 z"
         style="fill:url(#radialGradient4350);fill-opacity:1;fill-rule:evenodd;stroke:none;stroke-width:1px;stroke-linecap:butt;stroke-linejoin:miter;stroke-opacity:1" />
    </clipPath>
    <radialGradient
       xlink:href="#linearGradient2867-449-88-871-390-598-476-591-434-148-57-177-641-289-620-227-114-444-680-744-4-1-5"
       id="radialGradient4350"
       gradientUnits="userSpaceOnUse"
       gradientTransform="matrix(1.5646867e-7,3.7500001,-3.8749999,1.625e-7,21.624999,-41)"
       cx="12"
       cy="3"
       fx="12"
       fy="3"
       r="8" />
    <clipPath
       clipPathUnits="userSpaceOnUse"
       id="clipPath4354">
      <path
         id="path4356"
         d="M 10,2 C 9.446,2 9,2.446 9,3 L 9,9 3,9 C 2.446,9 2,9.446 2,10 l 0,4 c 0,0.554 0.446,1 1,1 l 6,0 0,6 c 0,0.554 0.446,1 1,1 l 4,0 c 0.554,0 1,-0.446 1,-1 l 0,-6 6,0 c 0.554,0 1,-0.446 1,-1 l 0,-4 C 22,9.446 21.554,9 21,9 L 15,9 15,3 C 15,2.446 14.554,2 14,2 l -4,0 z"
         style="fill:url(#radialGradient4358);fill-opacity:1;fill-rule:evenodd;stroke:none;stroke-width:1px;stroke-linecap:butt;stroke-linejoin:miter;stroke-opacity:1" />
    </clipPath>
    <radialGradient
       xlink:href="#linearGradient2867-449-88-871-390-598-476-591-434-148-57-177-641-289-620-227-114-444-680-744-4-1-5"
       id="radialGradient4358"
       gradientUnits="userSpaceOnUse"
       gradientTransform="matrix(1.5646867e-7,3.7500001,-3.8749999,1.625e-7,21.624999,-41)"
       cx="12"
       cy="3"
       fx="12"
       fy="3"
       r="8" />
  </defs>
  <metadata
     id="metadata4529">
    <rdf:RDF>
      <cc:Work
         rdf:about="">
        <dc:format>image/svg+xml</dc:format>
        <dc:type
           rdf:resource="http://purl.org/dc/dcmitype/StillImage" />
        <dc:title />
      </cc:Work>
    </rdf:RDF>
  </metadata>
  <path
     id="path4360"
     d="M 10,3 C 9.446,3 9,3.446 9,4 l 0,6 -6,0 c -0.554,0 -1,0.446 -1,1 l 0,4 c 0,0.554 0.446,1 1,1 l 6,0 0,6 c 0,0.554 0.446,1 1,1 l 4,0 c 0.554,0 1,-0.446 1,-1 l 0,-6 6,0 c 0.554,0 1,-0.446 1,-1 l 0,-4 c 0,-0.554 -0.446,-1 -1,-1 l -6,0 0,-6 C 15,3.446 14.554,3 14,3 l -4,0 z"
     style="fill:#ffffff;fill-opacity:1;fill-rule:evenodd;stroke:none;stroke-width:1px;stroke-linecap:butt;stroke-linejoin:miter;stroke-opacity:1;opacity:0.35" />
  <path
     style="fill:url(#radialGradient4328);fill-opacity:1;fill-rule:evenodd;stroke:none;stroke-width:1px;stroke-linecap:butt;stroke-linejoin:miter;stroke-opacity:1"
     d="M 10 2 C 9.446 2 9 2.446 9 3 L 9 9 L 3 9 C 2.446 9 2 9.446 2 10 L 2 14 C 2 14.554 2.446 15 3 15 L 9 15 L 9 21 C 9 21.554 9.446 22 10 22 L 14 22 C 14.554 22 15 21.554 15 21 L 15 15 L 21 15 C 21.554 15 22 14.554 22 14 L 22 10 C 22 9.446 21.554 9 21 9 L 15 9 L 15 3 C 15 2.446 14.554 2 14 2 L 10 2 z "
     id="path4326" />
  <path
     style="opacity:0.05;fill:none;fill-opacity:1;fill-rule:evenodd;stroke:#000000;stroke-width:4;stroke-linecap:butt;stroke-linejoin:miter;stroke-miterlimit:4;stroke-dasharray:none;stroke-opacity:1"
     clip-path="url(#clipPath4354)"
     d="M 10 2 C 9.446 2 9 2.446 9 3 L 9 9 L 3 9 C 2.446 9 2 9.446 2 10 L 2 14 C 2 14.554 2.446 15 3 15 L 9 15 L 9 21 C 9 21.554 9.446 22 10 22 L 14 22 C 14.554 22 15 21.554 15 21 L 15 15 L 21 15 C 21.554 15 22 14.554 22 14 L 22 10 C 22 9.446 21.554 9 21 9 L 15 9 L 15 3 C 15 2.446 14.554 2 14 2 L 10 2 z "
     id="path4330" />
  <path
     style="opacity:0.1;fill:none;fill-opacity:1;fill-rule:evenodd;stroke:#000000;stroke-width:2;stroke-linecap:butt;stroke-linejoin:miter;stroke-miterlimit:4;stroke-dasharray:none;stroke-opacity:1"
     clip-path="url(#clipPath4346)"
     d="M 10 2 C 9.446 2 9 2.446 9 3 L 9 9 L 3 9 C 2.446 9 2 9.446 2 10 L 2 14 C 2 14.554 2.446 15 3 15 L 9 15 L 9 21 C 9 21.554 9.446 22 10 22 L 14 22 C 14.554 22 15 21.554 15 21 L 15 15 L 21 15 C 21.554 15 22 14.554 22 14 L 22 10 C 22 9.446 21.554 9 21 9 L 15 9 L 15 3 C 15 2.446 14.554 2 14 2 L 10 2 z "
     id="path4173" />
</svg>
